X:1
T:Holahi
N:Book: Singing Together, BBC Broadcasts to Schools, Autumn Term, 1958
N:German Song translated by Gladys Whitred
N:From 'Twenty-five Rhythm and Melody Songs', George G Harrup and co.
M:2/4     %Meter
L:1/16     %
K:D
D2E2 F2G2 |A2B2 A4 |
w:Hark, d'you hear those steps out there? 
G2E2 c4 |A2F2 d4 |
w:Ho-la-hi! Ho-la ho!
D2E2 F2G2 |A2B2 A4 |
w:Can it be my dar-ling fair?
G2E2 c2e2 |d8 |
w:Ho-la-hi-a ho!
B4 B4 |d4 (c2B2) |A4 F4 |A8 |
w:She's passed by and_ did not call.
G4 E4 |c8 |A4 F4 |d8 |
w:Ho-la-hi! Ho-la-ho!
B4 B4 |d4 (c2B2) |A4 F4 |A8 |
w:P'raps it was not_ her at all.
G4 E4 |c4 e4 |d8 |
w:Ho-la-hi-a ho!